dist/assets/images/logo_symbol.svg

<svg width="60" height="60" viewBox="0 0 60 60" fill="none" xmlns="http://www.w3.org/2000/svg">
<path d="M38.5946 39.0972C39.6486 38.2296 40.873 37.585 42.0284 37.3742L50.9351 35.7242C53.3432 35.2823 53.7568 33.6242 51.8513 32.0472L44.8176 26.2093C44.0919 25.6053 43.4595 24.7499 42.9689 23.7891C38.2054 26.0755 33.8351 27.3891 29.9919 28.0945C32.1892 32.112 35.627 36.0728 38.5946 39.0972Z" fill="#EF7D17"/>
<path d="M14.4689 27.8594C14.3716 27.9769 14.2784 28.0945 14.173 28.1999L7.91353 34.9094C6.22299 36.7215 6.8311 38.3067 9.27975 38.4364L18.3162 38.9188C19.9298 39.004 21.7662 39.8756 23.1568 41.0918C26.6149 36.6161 28.7433 32.2013 29.9919 28.0945C22.2973 29.5053 16.7433 28.4634 14.4689 27.8594Z" fill="#0056A4"/>
<path d="M29.9919 28.0907C33.8351 27.3893 38.2013 26.0718 42.9689 23.7893C42.1743 22.2204 41.7567 20.3596 41.9635 18.8231L43.1878 9.62042C43.5203 7.13529 42.1135 6.21907 40.0662 7.58934L32.477 12.6488C32.1162 12.892 31.7067 13.0947 31.2689 13.265C31.7554 17.1204 31.7513 22.2975 29.9919 28.0907Z" fill="#FDC400"/>
<path d="M31.2689 13.265C30.7378 13.4718 30.1662 13.6218 29.5702 13.7191C27.8959 13.9907 26.0837 13.8164 24.7459 13.1515L16.5973 9.11369C14.3959 8.01909 13.1108 9.10963 13.7473 11.534L16.0946 20.5056C16.6905 22.784 15.9608 25.9826 14.4648 27.8596C16.7432 28.4637 22.2973 29.5056 29.9919 28.0948C29.9919 28.0907 29.9919 28.0907 29.9919 28.0907C31.7513 22.2975 31.7554 17.1204 31.2689 13.265Z" fill="#90BA1E"/>
<path d="M29.9879 28.0948C29.9879 28.0908 29.9879 28.0908 29.9879 28.0948C29.9879 28.0908 29.9879 28.0908 29.9879 28.0948C28.7392 32.2016 26.6108 36.6165 23.1487 41.0962L23.1446 41.0921C23.8581 41.7165 24.4581 42.43 24.8514 43.18L29.1325 51.357C30.2879 53.5705 31.95 53.4611 32.8257 51.1178L36.0649 42.4462C36.5149 41.23 37.4595 40.034 38.5946 39.1016C35.623 36.0732 32.1892 32.1124 29.9879 28.0948Z" fill="#AF1280"/>
</svg>

<svg width="60" height="60" fill="none" xmlns="http://www.w3.org/2000/svg"><path d="M38.595 39.097c1.054-.867 2.278-1.512 3.433-1.723l8.907-1.65c2.408-.442 2.822-2.1.916-3.677l-7.033-5.838c-.726-.604-1.358-1.46-1.85-2.42-4.763 2.287-9.133 3.6-12.976 4.305 2.197 4.018 5.635 7.979 8.603 11.003z" fill="#EF7D17"/><path d="M14.469 27.86c-.097.117-.19.235-.296.34l-6.26 6.71c-1.69 1.812-1.082 3.397 1.367 3.526l9.036.483c1.614.085 3.45.957 4.84 2.173 3.459-4.476 5.587-8.89 6.836-12.997-7.695 1.41-13.249.368-15.523-.236z" fill="#0056A4"/><path d="M29.992 28.09c3.843-.7 8.21-2.018 12.977-4.3-.795-1.57-1.212-3.43-1.005-4.967l1.224-9.203c.332-2.485-1.075-3.4-3.122-2.03l-7.589 5.059c-.36.243-.77.446-1.208.616a35.624 35.624 0 01-1.277 14.826z" fill="#FDC400"/><path d="M31.269 13.265a8.431 8.431 0 01-1.699.454c-1.674.272-3.486.097-4.824-.567l-8.149-4.038c-2.201-1.095-3.486-.004-2.85 2.42l2.348 8.972c.596 2.278-.134 5.477-1.63 7.354 2.278.604 7.832 1.646 15.527.235v-.004a35.624 35.624 0 001.277-14.826z" fill="#90BA1E"/><path d="M29.988 28.095c0-.004 0-.004 0 0 0-.004 0-.004 0 0-1.249 4.107-3.377 8.522-6.84 13.001l-.003-.004c.713.625 1.313 1.338 1.706 2.088l4.282 8.177c1.155 2.214 2.817 2.104 3.693-.24l3.239-8.67c.45-1.217 1.395-2.413 2.53-3.345-2.972-3.029-6.406-6.99-8.607-11.007z" fill="#AF1280"/></svg>
